X: 1
T: Le Fette De Village
M: 4/4
L: 1/8
R: reel
K: Dmaj
|:a2 aa gfef|g2 f2 e2 de|f2 d2 c2 d2|edcB A4| 
a2 aa gfef|g2 f2 e2 de|f2 e2 AecA|d4d4:|
|:FAdA GBdB|FAdA GBdB|d2a2g2f2|edef e4|  
FAdA FAdA|GBdB GBdB|d2f2e2a2|d4d4 :|
